icon/fa/signature.svg

<svg xmlns="http://www.w3.org/2000/svg" viewBox="0 0 640 512"><!--! Font Awesome Free 6.1.2 by @fontawesome - https://fontawesome.com License - https://fontawesome.com/license/free (Icons: CC BY 4.0, Fonts: SIL OFL 1.1, Code: MIT License) Copyright 2022 Fonticons, Inc.--><path d="M192 160c0 17.7-14.3 32-32 32s-32-14.3-32-32v-32c0-53.02 42.1-96 96-96 53 0 96 42.98 96 96v7.8c0 20.8-1.2 41.6-3.6 62.3l122.4-36.8c11.4-3.4 23.8-.2 31.3 8.4 9.2 8.6 12 21.1 8.3 32.4l-18 53H544c17.7 0 32 15.2 32 32 0 18.6-14.3 32-32 32H416c-10.3 0-19.9-4-26-12.4-6-8.3-7.6-19.1-4.4-28.8l12.5-37.5-94.4 28.3c-11.8 52.8-31.5 103.5-58.4 150.5l-13.9 24.3c-12.9 22.6-36.9 36.5-62.9 36.5-40 0-73.4-32.5-73.4-72.5v-71.9c0-42.4 28.7-79.8 69.3-91.9l84.4-25.4c4.8-27.2 6.3-54.8 6.3-82.5V128c0-17.7-13.4-32-32-32-16.8 0-32 14.3-32 32l.9 32zm-32 175.6v71.9c0 4.7 3.8 8.5 8.5 8.5 3 0 5.9-1.6 7.4-4.3l13.9-24.3c17.5-30.8 31.6-63.3 42-97.1l-49 13.8c-13.5 4.9-22.8 17.4-22.8 31.5zM24 368h40v39.5c0 2.9.11 5.7.34 8.5H24c-13.25 0-24-10.7-24-24s10.75-24 24-24zm592 48H283.5c8.2-15.7 15.7-31.7 22.4-48H616c13.3 0 24 10.7 24 24s-10.7 24-24 24z"/></svg>

<svg xmlns="http://www.w3.org/2000/svg" viewBox="0 0 640 512" height="1em" width="1em">
<!--! Font Awesome Free 6.1.2 by @fontawesome - https://fontawesome.com License - https://fontawesome.com/license/free (Icons: CC BY 4.0, Fonts: SIL OFL 1.1, Code: MIT License) Copyright 2022 Fonticons, Inc.-->
  <path d="M192 160C192 177.7 177.7 192 160 192C142.3 192 128 177.7 128 160V128C128 74.98 170.1 32 224 32C277 32 320 74.98 320 128V135.8C320 156.6 318.8 177.4 316.4 198.1L438.8 161.3C450.2 157.9 462.6 161.1 470.1 169.7C479.3 178.3 482.1 190.8 478.4 202.1L460.4 255.1H544C561.7 255.1 576 270.3 576 287.1C576 305.7 561.7 319.1 544 319.1H416C405.7 319.1 396.1 315.1 390 306.7C384 298.4 382.4 287.6 385.6 277.9L398.1 240.4L303.7 268.7C291.9 321.5 272.2 372.2 245.3 419.2L231.4 443.5C218.5 466.1 194.5 480 168.5 480C128.5 480 95.1 447.5 95.1 407.5V335.6C95.1 293.2 123.8 255.8 164.4 243.7L248.8 218.3C253.6 191.1 255.1 163.5 255.1 135.8V128C255.1 110.3 241.7 96 223.1 96C206.3 96 191.1 110.3 191.1 128L192 160zM160 335.6V407.5C160 412.2 163.8 416 168.5 416C171.5 416 174.4 414.4 175.9 411.7L189.8 387.4C207.3 356.6 221.4 324.1 231.8 290.3L182.8 304.1C169.3 309 160 321.5 160 335.6V335.6zM24 368H64V407.5C64 410.4 64.11 413.2 64.34 416H24C10.75 416 0 405.3 0 392C0 378.7 10.75 368 24 368zM616 416H283.5C291.7 400.3 299.2 384.3 305.9 368H616C629.3 368 640 378.7 640 392C640 405.3 629.3 416 616 416z"/>
</svg>
